X:1495
T:Home Sweet Home
A:Wyresdale, Lancashire
B:E and J Winder, 1835-41
L:1/8
M:2/4
N:This is what's written. the B part seems to have gone a bit adrift in the middle.
O:England
Z:Richard Robinson 
%%TranscriptionNotes:This is what's written
%%TUNEURL: http://www.leeds.ac.uk/music/Info/RRTuneBk/gettune/00001236.html
%%ID:00001236
K:G
G2 | B>c B>c | d2 zB | c>BcA | B2 (GA) | B>c c>d | (d2 B)d | c>BcA | G2 ::
f2 | g>fe>d | (d2 B)d | cBcA | B3 d | g>fed | (d2B)d | dc A>B |  G2 |
d4 | (cA) | G A | B d | g>fe>d | (d2B) d | (de) (c/B/)A GA | G4 |]
%%newpage
%page 120
